svg/UnitedNationsOCHA-Humanitarian/food_NFI_vaccine_icon_box.svg

<svg xmlns="http://www.w3.org/2000/svg" viewBox="0 0 32 32" enable-background="new 0 0 32 32"><path fill="#407cca" d="m25.6 0h-19.2c-3.52 0-6.4 2.88-6.4 6.4v19.2c0 3.52 2.88 6.4 6.4 6.4h19.2c3.521 0 6.4-2.88 6.4-6.4v-19.2c0-3.52-2.88-6.4-6.4-6.4m-10.13 8.17h-3.275v12.566h-1.112v1.073c0 0 .072.325-.503.493v5.233c0 .256-.206.464-.462.464s-.462-.208-.462-.464v-5.233c-.576-.167-.505-.492-.505-.492v-1.073h-1.115v-12.567h-3.272c-.25 0-.457-.203-.457-.455 0-.25.207-.455.457-.455h4.15v-2.333h-1.44c-.256 0-.463-.208-.463-.463 0-.256.206-.464.463-.464h5.284c.256 0 .466.208.466.464 0 .255-.209.463-.466.463h-1.44v2.334h4.153c.25 0 .453.205.453.455-.0001.251-.204.454-.454.454m11.579 9.661l-.004 8.484c-.256 1.38-1.965 1.585-3.922 1.685-1.962-.1-3.668-.305-3.931-1.685v-8.57c-.272-.242-.456-.547-.522-.933v-2.317c.26-1.49 2.234-1.787 4.513-1.887 2.166.072 3.938.397 4.447 1.614l.019.063.003.063.041 2.466c-.076.434-.31.759-.644 1.017m-6.544-3.17c-.315-.109-.557-.238-.697-.35.429-.355 1.753-.728 3.281-.728.031 0 .063 0 .094.003.994 0 1.9.134 2.547.336.409.12.644.276.794.401-.156.121-.409.271-.781.377-.65.208-1.553.345-2.55.345-1.066 0-2.029-.162-2.688-.384m-11.607-6.491h2.435v6.114h-2.435v-6.114m17.797 7.194l.021 1.451c0 0-.003.049-.141.163-.412.37-1.806.758-3.394.746-1.065 0-2.024-.151-2.688-.383-.328-.113-.575-.25-.712-.363-.141-.117-.141-.166-.141-.166v-1.481c.84.463 2.118.622 3.55.683 1.424-.045 2.667-.206 3.505-.65m-3.512 3.333c1.088-.044 2.097-.14 2.891-.383v8c0 0 .001.008-.094.091-.328.291-1.509.633-2.856.615-.906.004-1.725-.131-2.271-.324-.275-.088-.481-.205-.588-.291-.1-.088-.078-.091-.094-.091v-1.715c1.291.512 2.919.43 2.919.43v-4.492c-1.353 0-2.378-.387-2.919-.646v-1.609c.811.269 1.874.367 3.01.414"/></svg>

<?xml version="1.0" encoding="utf-8"?>
<!-- Generator: Adobe Illustrator 16.0.3, SVG Export Plug-In . SVG Version: 6.00 Build 0)  -->
<!DOCTYPE svg PUBLIC "-//W3C//DTD SVG 1.1//EN" "http://www.w3.org/Graphics/SVG/1.1/DTD/svg11.dtd">
<svg version="1.1" id="Layer_1" xmlns="http://www.w3.org/2000/svg" xmlns:xlink="http://www.w3.org/1999/xlink" x="0px" y="0px"
	 width="32px" height="32px" viewBox="0 0 32 32" enable-background="new 0 0 32 32" xml:space="preserve">
<path fill="#407CCA" d="M25.6,0H6.4C2.88,0,0,2.88,0,6.4v19.2C0,29.12,2.88,32,6.4,32h19.2c3.521,0,6.4-2.88,6.4-6.4V6.4
	C32,2.88,29.12,0,25.6,0z M15.47,8.17h-3.275v12.566h-1.112v1.073c0,0,0.072,0.325-0.503,0.493v5.233
	c0,0.256-0.206,0.464-0.462,0.464s-0.462-0.208-0.462-0.464v-5.233C9.08,22.135,9.151,21.81,9.151,21.81v-1.073H8.036V8.17H4.764
	c-0.25,0-0.457-0.203-0.457-0.455c0-0.25,0.207-0.455,0.457-0.455h4.15V4.927h-1.44c-0.256,0-0.463-0.208-0.463-0.463
	C7.011,4.208,7.217,4,7.474,4h5.284c0.256,0,0.466,0.208,0.466,0.464c0,0.255-0.209,0.463-0.466,0.463h-1.44v2.334h4.153
	c0.25,0,0.453,0.205,0.453,0.455C15.923,7.967,15.72,8.17,15.47,8.17z M27.049,17.831l-0.004,8.484
	C26.789,27.695,25.08,27.9,23.123,28c-1.962-0.1-3.668-0.305-3.931-1.685v-8.57c-0.272-0.242-0.456-0.547-0.522-0.933v-2.317
	c0.26-1.49,2.234-1.787,4.513-1.887c2.166,0.072,3.938,0.397,4.447,1.614l0.019,0.063l0.003,0.063l0.041,2.466
	C27.617,17.248,27.383,17.573,27.049,17.831z M20.505,14.661c-0.315-0.109-0.557-0.238-0.697-0.35
	c0.429-0.355,1.753-0.728,3.281-0.728c0.031,0,0.063,0,0.094,0.003c0.994,0,1.9,0.134,2.547,0.336
	c0.409,0.12,0.644,0.276,0.794,0.401c-0.156,0.121-0.409,0.271-0.781,0.377c-0.65,0.208-1.553,0.345-2.55,0.345
	C22.127,15.045,21.164,14.883,20.505,14.661z M8.898,8.17h2.435v6.114H8.898V8.17z M26.695,15.364l0.021,1.451
	c0,0-0.003,0.049-0.141,0.163c-0.412,0.37-1.806,0.758-3.394,0.746c-1.065,0-2.024-0.151-2.688-0.383
	c-0.328-0.113-0.575-0.25-0.712-0.363c-0.141-0.117-0.141-0.166-0.141-0.166v-1.481c0.84,0.463,2.118,0.622,3.55,0.683
	C24.614,15.969,25.857,15.808,26.695,15.364z M23.183,18.697c1.088-0.044,2.097-0.14,2.891-0.383v8.001c0,0,0.01,0.008-0.094,0.091
	c-0.328,0.291-1.509,0.633-2.856,0.615c-0.906,0.004-1.725-0.131-2.271-0.324c-0.275-0.088-0.481-0.205-0.588-0.291
	c-0.1-0.088-0.078-0.091-0.094-0.091V24.6c1.291,0.512,2.919,0.43,2.919,0.43v-4.492c-1.353,0-2.378-0.387-2.919-0.646v-1.609
	C20.982,18.552,22.045,18.65,23.183,18.697z"/>
</svg>
